X:1
T:The Shanty Boy on the Big Eau Claire
M:4/4
L:1/4
K:E
 B,| B, E E G| B B B E| D/2 E3/2 F D| E3| B,| B, E E G| B B2 B| =d3/2 d/2 d e|\
 B3| B| E G B e| f e2 e| e3/2 A/2 A A| A3| A| c3/2 c/2 e d| c B G E|\
 D3/2 E/2 F D| E3||
